!!!COM: Haydn, Franz Joseph
!!!CDT: 1732/03/31/-1809/05/31/
!!!CNT: Austrian
!!!OTL: Sonata No. 59 in E-flat major
!!!SCT: Hob. XVI:49
!!!OMV: Mvmt. 1
!!!OMD: Allgero
!!!ODT: 1789-1790///
!!!SMS: Universal Edition 1, Haydn Piano Sonatas, Vol. 3, No. 25
!!!ONB: Stich und Druck von Jos. Eberle & Co. Wien VII. Seidengasse 3-9
**kern	**kern	**dynam
*staff2	*staff1	*staff1/2
*Ipiano	*Ipiano	*Ipiano
*>[A,A,B,B]	*>[A,A,B,B]	*>[A,A,B,B]
*>norep[A,B]	*>norep[A,B]	*>norep[A,B]
*>A	*>A	*>A
*clefF4	*clefG2	*clefG2
*k[b-e-a-]	*k[b-e-a-]	*k[b-e-a-]
*E-:	*E-:	*E-:
*M3/4	*M3/4	*M3/4
*MM120	*MM120	*MM120
4r	(16G/LL	.
.	16B-/	.
.	16A-/	.
.	16c/JJ	.
=1	=1	=1
8EE-/ 8GG/	8B-/)	mf
8r	8r	.
8E-\ 8G\	4r	.
8r	.	.
4r	(16g/LL	.
.	16e-/	.
.	16d/	.
.	16f/JJ	.
=2	=2	=2
8EE-/ 8GG/	8e-/)	.
8r	8r	.
8E-\ 8G\	8r	.
8r	(8e-/L	<
4r	8g/	.
.	8b-/J	.
=3	=3	=3
4.c\ 4.e-\	4b-\	.
.	8a-/L)	.
8B-'\ 8d'\L	8g'/	.
8A-'\ 8c'\	8f'/	.
8G'\ 8B-'\J	8e-'/J	.
=4	=4	=4
4F\ 4A-\	(8.d/L	.
.	16f/Jk	.
4r	8a-'/)	.
.	8r	.
4r	(16B-/LL	.
.	16d/	.
.	16c/	.
.	16e-/JJ	.
=5	=5	=5
8BBB-/ 8DD/	8d/)	.
8r	8r	.
8BB-/ 8D/	4r	.
8r	.	.
4r	(16d/LL	.
.	16f/	.
.	16e-/	.
.	16g/JJ	.
=6	=6	=6
8BBB-/ 8DD/	8f/)	.
8r	8r	.
8BB-/ 8D/	8r	.
8r	(8f/L	<
4r	8a-/	.
.	8cc/J	.
=7	=7	=7
4.d\ 4.f\	4cc\	.
.	8b-/L)	.
8c'\ 8e-'\L	8a-'/	.
8B-'\ 8d'\	8g'/	.
8A-'\ 8c'\J	8f'/J	.
=8	=8	=8
.	.(e-q/LLL	.
.	.fq/	.
.	.e-q/	.
.	.dq/JJJ	.
4G\ 4B-\	(8.e-/L)	.
.	16g/Jk	.
4r	8b-'/)	.
.	8r	.
4r	(16ee-\LL	f
.	16dd\	.
.	16ff\	.
.	16ee-\JJ	.
=9	=9	=9
2.GG/ 2.BB-/ [2.E-/	16gg\LL	f
.	16ff\	.
.	16aa-\	.
.	16gg\JJ	.
.	16bb-\LL	.
.	16aa-\	.
.	16gg\	.
.	16ff\JJ	.
.	16ee-\LL	.
.	16dd\	.
.	16cc\	.
.	16bn\JJ	.
=10	=10	=10
4.AA-/ 4.E-/]	4bn\	.
.	8cc''\)	.
.	.(ddq/LLL	.
.	.ccq/	.
.	.bq/JJJ)	.
8r	(8cc\L	p
4r	8dd\	.
.	8ee-\J)	.
=11	=11	=11
4r	8ee-/L	.
.	8f'/J	.
4r	(8cc/L	.
.	8c'/J)	.
4BB-\ 4F\	(8a-/L	p
.	8d'/J)	.
=12	=12	=12
8r	8e-/	.
8E-'/L	8r	.
8BB-'/	4r	.
8GG'/J	.	.
&(8EE-'/&)	8r	.
8r	(8B-/	.
=13	=13	=13
8r	[2e-/	.
8E-\L	.	.
8G\	.	.
8E-\	.	.
8B-\	8e-/L]	.
&(8BB-\J&)	8d/J	.
=14	=14	=14
8r	[2a-/	.
8BB-/L	.	.
8D/	.	.
8BB-/	.	.
8E-/	8a-/L])	.
&(8EE-/J&)	(8g/J	.
=15	=15	=15
*	*^	*
8r	[2ee-/	2g\	.
8E-\L	.	.	.
8G\	.	.	.
8E-\	.	.	.
8B-\	8ee-/L]	&(4f\&)	.
&(8BB-\J&)	8dd/J	.	.
=16	=16	=16	=16
8r	[2aa-/)	[2ff\	.
8B-\L	.	.	.
8d\	.	.	.
8B-\	.	.	.
8e-\	8aa-/L]	8ff\L]	<
&(8E-\J&)	8gg/J	(8gg\J	.
*	*v	*v	*
=17	=17	=17
8r	[2ccc\	.
8e-\L	.	.
8g\	.	.
8e-\	.	.
8d\	8ccc\L]	.
&(8f\J&)	8bbn\J	.
=18	=18	=18
8r	[2ff\ [2ddd\	.
8G\L	.	.
8Bn\	.	.
8G\	.	.
8c\	8ff\] 8ddd\L])	.
&(8C\J&)	8ee-\ (8ccc\J	.
=19	=19	=19
8r	4.gg\ 4.eee-\	f
8BBn'\ 8Bn'\L	.	.
8C'\ &(8c'\&)	.	.
8D\ 8d\	8ff\ 8ddd\L	.
8E-\ 8e-\	8ee-\ 8ccc\	.
8En\ 8en\J	8dd\ 8bb-\J	.
=20	=20	=20
*	*^	*
4.F\ &(4.f\&)	4bb-/	4dd\	>
.	8aan/)	8cc\	.
*clefG2	*	*	*
8b-/L	(8gg/L	4.cc\	f
8an/	8ff/	.	.
8g/J	8een/J	.	.
=21	=21	=21	=21
4g/	4een/	4.cc\	p
&(8an/&)	8ff/)	.	.
8b-/L	(8gg/L	4.cc\	.
8a/	8ff/	.	.
8g/J	8ee/J	.	.
=22	=22	=22	=22
4g/	4een/	4.cc\	p
&(8an/&)	8ff/)	.	.
8b-/L	(8gg/L	8dd-\L	.
8a/	8ff/	8cc\	.
8g/J	8een/J	8b-\J	>
*	*v	*v	*
=23	=23	=23
2g/	2.b-\ 2.een\	.
4g-/	.	.
=24	=24	=24
&(2f;/&)	2an;\ 2ee-;\)	.
4r	(16d/LL	mf
.	16f/	.
.	16e-/	.
.	16g/JJ	.
*clefF4	*	*
=25	=25	=25
8BB-/ 8D/	8f/)	.
8r	8r	.
8B-\ 8d\	8r	.
8r	(16gg\LL	.
.	16ff\JJ	.
4r	16ee-\LL	.
.	16dd\	.
.	16cc\	.
.	16b-\JJ	.
=26	=26	=26
8FF/ 8AAn/	8an/)	.
8r	8r	.
8F\ 8An\	4r	.
8r	.	.
4r	(16cc\LL	.
.	16ee-\	.
.	16dd\	.
.	16ff\JJ	.
=27	=27	=27
8FF/ 8AAn/	8ee-\)	.
8r	8r	.
8F\ 8An\	8r	.
8r	(16ccc\LL	.
.	16bb-\JJ	.
4r	16aan\LL	.
.	16gg\	.
.	16ff\	.
.	16ee-\JJ	.
=28	=28	=28
16B-\LL	8dd\)	f
16f\	.	.
16d\	8r	.
16f\JJ	.	.
16B-\LL	(16b-\LL	.
16f\	16cc\	.
16d\	16dd\	<
16f\JJ	16ee-\JJ	.
16B-\LL	16ff\LL	.
16f\	16gg\	.
16d\	16aan\	.
16f\JJ	16bb-\JJ	.
=29	=29	=29
16c\LL	4bb-\	.
16f\	.	.
16e-\	.	.
16f\JJ	.	.
16c'\LL	8aan\L)	.
16f\	.	.
16B-'\	8gg'\	.
16f\JJ	.	.
16An'\LL	8ff'\	.
16f\	.	.
16c'\	8ee-'\J	.
16f\JJ	.	.
=30	=30	=30
&(16B-\LL&)	(8cc#\L	>
16f\	.	.
16d\	8dd\J)	.
16f\JJ	.	.
16B-\LL	(16b-\LL	<
16f\	16ccn\	.
16d\	16dd\	.
16f\JJ	16ee-\JJ	.
16B-\LL	16ff\LL	.
16f\	16gg\	.
16d\	16aan\	.
16f\JJ	16bb-\JJ	.
=31	=31	=31
16c\LL	4bb-\	.
16f\	.	.
16e-\	.	.
16f\JJ	.	.
16c'\LL	8aan\L)	.
16f\	.	.
16B-'\	8gg'\	.
16f\JJ	.	.
16An'\LL	8ff'\	.
16f\	.	.
16c'\	8ee-'\J	.
16f\JJ	.	.
=32	=32	=32
&(16B-\LL&)	(8cc#\L	.
16f\	.	.
16d\	8dd\J)	.
16f\JJ	.	.
16B-\LL	(16b-\LL	.
16f\	16ccn\	.
16d\	16dd\	.
16f\JJ	16ee-\JJ	.
16B-\LL	16ff\LL	.
16f\	16gg\	.
16d\	16aa-\	.
16f\JJ	16bb-\JJ	.
=33	=33	=33
16A-\LL	4.ccc\)	.
16f\	.	.
16d\	.	.
16f\JJ	.	.
16A-\LL	.	.
16f\	.	.
16d\	(8ccc\L	.
16f\JJ	.	.
16A-\LL	8.fff\	.
16f\	.	.
16d\	.	.
16f\JJ	16ddd\Jk	.
=34	=34	=34
16G\LL	4ccc\	.
16f\	.	.
16d\	.	.
16f\JJ	.	.
16G\LL	4..bbn\	.
16f\	.	.
16d\	.	.
16f\JJ	.	.
16G\LL	.	.
16f\	.	.
16d\	.	.
16f\JJ	32aan\LLL	.
.	32bb\JJJ	.
=35	=35	=35
16G\LL	8.ccc\L	.
16e-\	.	.
16c\	.	.
16e-\JJ	16ddd\Jk	.
16G\LL	8eee-\L)	.
16e-\	.	.
16c\	16r	.
16e-\JJ	(16ddd\Jk	.
16G-\LL	8ccc\L)	.
16e-\	.	.
16c\	16r	.
16e-\JJ	(16bb-\Jk	.
=36	=36	=36
16F\LL	4bb-\	.
16e-\	.	.
16c\	.	.
16e-\JJ	.	.
16F\LL	8.aan\L	.
16e-\	.	.
16c\	.	.
16e-\JJ	32gg\LL	.
.	32aa\JJJ	.
16Gn\LL	4bb-\)	.
16d\	.	.
16B-\	.	.
16d\JJ	.	.
=37	=37	=37
&(4E-\&)	(16aan\LL	p
.	16gg\	.
.	16ff#\	.
.	16gg\JJ	.
4r	16ff#\LL	.
.	16gg\	.
.	16ff#\	.
.	16gg\JJ	.
4r	8bb-\L	.
.	8gg'\J)	.
*clefG2	*	*
=38	=38	=38
4e-/ 4g/	(16ffn\LL	.
.	16ee-\	.
.	16dd\	.
.	16ee-\JJ	.
4r	16dd\LL	.
.	16ee-\	.
.	16dd\	.
.	16ee-\JJ	.
4r	8gg\L	.
.	8ee-'\J)	.
=39	=39	=39
2.r	(16dd/LL	<
.	16cc/JJ)	.
.	16bn\LL	.
.	16cc\JJ	.
.	16dd/LL	.
.	16cc/JJ	.
.	16b\LL	.
.	16cc\JJ	.
.	16dd/LL	.
.	16cc/JJ	.
.	16b\LL	.
.	&(16cc\JJ&)	.
=40	=40	=40
2.r	(4ff#\	f
.	.ggq/LL	.
.	.ff#q/	.
.	.ee-q/JJ	.
.	8.ff#\L	.
.	16aan\Jk	>
.	12gg\L	.
.	12ee-\	.
.	12cc\J	.
*clefF4	*	*
=41	=41	=41
*	*^	*
2F\ 2d\	2r	(4.b-\)	.
.	.	8b-\	p
4F\ 4e-\	8dd/L	4an\	.
.	8cc/J	.	.
*	*v	*v	*
=42	=42	=42
16B-\LL	4b-\)	f
16f\	.	.
16d\	.	.
16f\JJ	.	.
16B-\LL	8r	.
16f\	.	.
*	*clefF4	*clefF4
16d\	8FF'/L	f
16f\JJ	.	.
16B-\LL	8BB-'/	.
16f\	.	.
16d\	8D'/J	.
16f\JJ	.	.
=43	=43	=43
16An\LL	(4.E-\	.
16f\	.	.
16c\	.	.
16f\JJ	.	.
16A\LL	.	.
16f\	.	.
16c\	16C/LL	.
16f\JJ	16AAn/JJ	.
16A\LL	8FF/L)	.
16f\	.	.
16c\	8EE-/J	.
16f\JJ	.	.
=44	=44	=44
16B-\LL	8DD'/	.
16f\	.	.
16d\	8r	.
16f\JJ	.	.
16B-\LL	8r	.
16f\	.	.
*	*clefG2	*clefG2
16d\	8ff'\L	.
16f\JJ	.	.
16B-\LL	8bb-'\	.
16f\	.	.
16d\	8ddd'\J	.
16f\JJ	.	.
=45	=45	=45
16An\LL	(4.eee-\	f
16f\	.	.
16c\	.	.
16f\JJ	.	.
16A\LL	.	.
16f\	.	.
16c\	16ccc\LL	.
16f\JJ	16aan\JJ)	.
16A\LL	8ff'\L	.
16f\	.	.
16c\	8ee-'\J	.
16f\JJ	.	.
=46	=46	=46
(16B-\LL	8dd'\	.
16f\	.	.
16d\	8r	.
16f\JJ	.	.
16B-\LL	8r	.
16f\	.	.
*	*clefF4	*clefF4
16d\	8FF'/L	.
16f\JJ	.	.
16B-\LL	8BB-'/	.
16f\	.	.
16d\	8D'/J	.
16f\JJ	.	.
=47	=47	=47
16An\LL	8E-'\	.
16f\	.	.
16c\	16r	.
16f\JJ	32E-/LLL	.
.	32C/JJJ	.
16A\LL	&(8AAn/&)	.
16f\	.	.
16c\	16r	.
16f\JJ	32C/LLL	.
.	32AA/JJJ	.
16A\LL	&(8FF'/L&)	.
16f\	.	.
16c\	8EE-'/J	.
16f\JJ	.	.
=48	=48	=48
(16B-\LL)	8DD'/	.
16f\	.	.
16d\	8r	.
16f\JJ	.	.
*	*clefG2	*clefG2
16B-\LL	16r	.
16f\	16ff\LL	.
16d\	16bb-\	.
16f\JJ	16ddd\JJ	.
16B-\LL	&(8fff'\L&)	.
16f\	.	.
16d\	8fff'\J	.
16f\JJ	.	.
=49	=49	=49
4An\)	16eee-\LL	.
.	16fff\	.
.	16eee-\	.
.	16ddd\JJ	.
4r	16ccc\LL	.
.	16bb-\	.
.	16aan\	.
.	16gg\JJ	.
4r	16ff\LL	.
.	16ee-\	.
.	16dd\	.
.	16cc\JJ	.
=50	=50	=50
8B-\	&(8b-'\L&)	>
8r	8bb-\ 8ddd\J	.
*clefG2	*	*
8f/	8r	.
8r	8aan\ 8ccc\	.
8g/	8r	.
8r	8gg\ 8bb-\	.
=51	=51	=51
8d/	8r	.
8r	8ff\ 8aa-\	.
8e-/	8r	.
8r	8ee-\ 8gg\	.
8g/ 8bn/	8r	.
8r	8dd\ 8ff\	.
=52	=52	=52
8a-/	8r	.
8r	8cc\ 8ee-\	.
4r	4r	.
4r	4r	.
=53	=53	=53
2.r	4r	.
.	8r	.
.	8cc'\ (8ee-'\L	p
.	8cc\ 8ee-\	.
.	8cc'\ 8ee-'\J)	.
=54	=54	=54
4r	[2.cc\ [2.ee-\	p
8r	.	.
(8a-'/L	.	.
8a-'/	.	.
8a-'/J)	.	.
=55	=55	=55
2.a-/	4.cc\] 4.ee-\]	.
.	8cc'\ (8ee-'\L	<
.	8cc'\ 8ee-'\	.
.	8cc'\ 8ee-'\J)	.
*clefF4	*	*
=56	=56	=56
4r	[2.cc\ [2.ee-\	.
8r	.	.
(8A-'\L	.	.
8A-'\	.	.
8A-'\J)	.	.
=57	=57	=57
4A-\	2cc\] 2ee-\]	.
4G\	.	.
4G-\	4b-\ 4dd-\ (4een\	f
=58	=58	=58
&(2.F\&) 2.B-\ 2.d\	4.f\ 4.b-\ 4.ddn\ 4.ff\	.
.	16gg\LL	.
.	16ff\JJ	.
.	16ee-\LL	.
.	16dd\	.
.	16cc\	.
.	16b-\JJ	.
=59	=59	=59
2.F\ 2.c\ 2.e-\	(4.an/)	.
.	.ddq/LLL	.
.	.ccq/	.
.	.bnq/JJJ	.
.	8cc\L	.
.	8ee-\	.
.	8a\J	.
*clefG2	*	*
=60	=60	=60
*^	*	*
8r	[2.B-\	8b-/L)	p
8d/L	.	(8f/	.
8e-/	.	8g-/	.
8en/	.	8gn/	.
8f/	.	8a-/	.
8f#/J	.	8an/J	.
=61	=61	=61	=61
8g/L	2.B-\_	8b-\L	.
8fn/	.	8bn\	.
8e-/	.	8cc\	.
8d/	.	8dd\	.
8c/	.	8ee-\	.
8e-/J	.	8an\J	.
=62	=62	=62	=62
&(8d/&)	8B-\]	8b-\)	.
8r	8r	8dd\ (8ff\L	f
4r	4r	8ee-\ 8gg\	.
.	.	8dd\ 8ff\	.
4r	4r	8cc\ 8ee-\	.
.	.	8b-\ 8dd\J	.
*v	*v	*	*
*clefF4	*	*
=63	=63	=63
8FF/ 8F/L	4an\ 4cc\)	f
8EEn/ 8En/	.	.
8EE-/ 8E-/	4r	.
8DD/ 8D/	.	.
8CC/ 8C/	4cc\ 4ee-\ (4aan\	.
8FF/ 8F/J	.	.
=64	=64	=64
&(4BBB-/&) 4BB-/	4dd\ 4ff\ 4bb-\)	.
4r	4r	.
=:|!|:	=:|!|:	=:|!|:
*>B	*>B	*>B
4r	8r	.
.	(8d/ 8f/	p
=65	=65	=65
4r	8e-/ 8g/L	.
.	8d/ 8f/	.
4r	8c/ 8e-/	.
.	8B-/ 8d/	.
8r	8An/ 8c/	.
8F\	8c/ 8e-/J	p
=66	=66	=66
*	*^	*
8G\L	4B-/) 4d/	4r	.
8F\	.	.	.
8E-\	(4.b-/	4d\	.
8D\	.	.	.
8C\	.	4e-\	.
8F\J	8an/	.	.
*	*v	*v	*
=67	=67	=67
&(8BB-\L&)	4d/ 4a-/	.
8B-\	.	.
8c\	4e-/ 4g/)	.
8B-\	.	.
8A-\	(4g\ [4ee-\	.
8G\J	.	.
=68	=68	=68
*	*^	*
8F\L	4ee-/]	4.a-\)	.
8c\	.	.	.
8B-\	[2dd/	.	.
8A-\	.	8cc\L	.
8G\	.	(8b-\	.
8F\J	.	8a-\J	.
=69	=69	=69	=69
8E-\L	4dd/]	4.g\)	.
8B-\	.	.	.
8A-\	([2cc/	.	.
8G\	.	8b-\L	.
8F\	.	8a-\	.
8E-\J	.	8g\J	.
=70	=70	=70	=70
8D\L	4cc/]	4.f\)	.
8A-\	.	.	.
8G\	(2bn/	.	.
8F\	.	8a-\L	.
8E-\	.	8g\	.
8D\J	.	8f\J	.
=71	=71	=71	=71
&(8C\L&)	(4b-/)	4en\	.
8c\	.	.	.
8d-\	4a-/)	4f\	.
8c\	.	.	.
8B-\	([4ff/	4a-\	.
8A-\J	.	.	.
=72	=72	=72	=72
8G\L	4ff/]	2.b-\	.
8d-\	.	.	.
8c\	4een/	.	.
8B-\	.	.	.
8A-\	[4gg/)	.	.
8G\J	.	.	.
=73	=73	=73	=73
8A-\L	(8gg/L]	2.cc\	.
8B-\	8een/	.	.
8A-\	8ff/	.	.
8G\	8gg/J	.	.
8F\	[4aa-/)	.	.
8E-\J	.	.	.
=74	=74	=74	=74
8Dn/L	(4aa-/]	8bn\L	.
8C/	.	8cc\J	.
8BBn/	4gg/	[2dd\	.
8GG/	.	.	.
8AAn/	4ff/	.	.
8BB/J	.	.	.
=75	=75	=75	=75
8C\L	2.ee-/)	4dd\]	.
8D\	.	.	.
8E-\	.	[2cc\	.
8En\	.	.	.
8F\	.	.	.
8F#\J	.	.	.
=76	=76	=76	=76
*^	*	*	*
4r	&(2.G\&)	[2.dd/	8cc\L]	.
.	.	.	8an\	.
8r	.	.	8bn\	.
8Bn/L	.	.	8a-\	.
8c/	.	.	8g\	.
8d/J	.	.	8f\J	.
*	*	*v	*v	*
=77	=77	=77	=77
2e-/	[2.G\	(8dd\L]	.
.	.	8bn\	.
.	.	8cc\	.
.	.	8dd\	.
4c/	.	8ee-\	.
.	.	8f#\J	.
=78	=78	=78	=78
4.Bn/	2.G\_	8g\L)	.
.	.	(8ff#\	.
.	.	8gg\	.
8B/L	.	8ffn\	.
8c/	.	8ee-\	.
8d/J	.	8dd\J	.
=79	=79	=79	=79
2e-/	2.G\_	8cc/L	.
.	.	8bn/	.
.	.	8cc/	.
.	.	8a-/	.
4c/	.	8g/	.
.	.	8f#/J	.
=80	=80	=80	=80
&(4Bn/&)	4G\]	4g/)	.
2r	4r	4r	.
.	4r	(16cc\LL	mf
.	.	16ee-\	.
.	.	16dd\	.
.	.	16ff\JJ	.
*v	*v	*	*
=81	=81	=81
8C\ 8E-\	8ee-\)	.
8r	8r	.
8c\ 8e-\	8r	.
8r	(16aa-\LL	.
.	16gg\JJ	.
4r	16ff\LL	.
.	16ee-\	.
.	16dd\	.
.	16cc\JJ	.
=82	=82	=82
8GG/ 8BBn/	8bn\)	.
8r	8r	.
8G\ 8Bn\	4r	.
8r	.	.
4r	(16dd\LL	.
.	16ff\	.
.	16ee-\	.
.	16gg\JJ	.
=83	=83	=83
8GG/ 8BBn/	8ff\)	.
8r	8r	.
8G\ 8Bn\	8r	.
8r	(16ddd\LL	.
.	16ccc\JJ	.
4r	16bbn\LL	.
.	16aa-\	.
.	16gg\	.
.	16ff\JJ	.
*clefG2	*	*
=84	=84	=84
16c/LL	8ee-\)	f
16g/	.	.
16e-/	8r	.
16g/JJ	.	.
16c/LL	(16cc\LL	f
16g/	16dd\	.
16e-/	16ee-\	.
16g/JJ	16ff\JJ	.
16c/LL	16gg\LL	.
16g/	16aan\	.
16e-/	16bbn\	.
16g/JJ	16ccc\JJ	.
=85	=85	=85
16d/LL	4ccc\	.
16g/	.	.
16f/	.	.
16g/JJ	.	.
16d'/LL	8bbn\L)	.
16g/	.	.
16c'/	8aa-'\	.
16g/JJ	.	.
16Bn'/LL	8gg'\	.
16g/	.	.
16d'/	8ff'\J	.
16g/JJ	.	.
=86	=86	=86
&(16c/LL&)	8ee-\	.
16g/	.	.
16e-/	8r	.
16g/JJ	.	.
16c/LL	(16cc\LL	<
16g/	16dd\	.
16e-/	16ee-\	.
16g/JJ	16ff\JJ	.
16c/LL	16gg\LL	.
16g/	16aa-\	.
16e-/	16bb-\	.
16g/JJ	16ccc\JJ	.
=87	=87	=87
16B-/LL	4.ddd-\	f
16g/	.	.
16e-/	.	.
16g/JJ	.	.
16B-/LL	.	.
16g/	.	.
16e-/	16bb-\LL	.
16g/JJ	16gg\JJ	.
16B-/LL	8ee-\L)	.
16g/	.	.
16e-/	8dd-'\J	.
16g/JJ	.	.
*clefF4	*	*
=88	=88	=88
&(16A-\LL&)	8cc'\	.
16e-\	.	.
16c\	8r	.
16e-\JJ	.	.
16A-\LL	(16a-\LL	.
16e-\	16b-\	.
16c\	16cc\	.
16e-\JJ	16dd-\JJ	.
16A-\LL	16ee-\LL	.
16e-\	16ff\	.
16c\	16gg\	.
16e-\JJ	16aa-\JJ	.
=89	=89	=89
16B-\LL	4aa-\	.
16e-\	.	.
16d-\	.	.
16e-\JJ	.	.
16B-'\LL	8gg\L)	.
16e-\	.	.
16A-'\	8ff'\	.
16e-\JJ	.	.
16G'\LL	8ee-'\	.
16e-\	.	.
16B-'\	8dd-'\J	.
16e-\JJ	.	.
=90	=90	=90
&(16A-\LL&)	8cc\	.
16e-\	.	.
16c\	8r	.
16e-\JJ	.	.
16A-\LL	(16cc\LL	.
16e-\	16dd-\	.
16c\	16ee-\	.
16e-\JJ	16ff\JJ	.
16A-\LL	16gg\LL	.
16e-\	16aa-\	.
16c\	16bb-\	.
16e-\JJ	16ccc\JJ	.
=91	=91	=91
16G\LL	4.bb-\	.
16en\	.	.
16B-\	.	.
16e\JJ	.	.
16G\LL	.	.
16e\	.	.
16B-\	16gg\LL	.
16e\JJ	16een\JJ	.
16G\LL	8cc'\L)	.
16e\	.	.
16B-\	8b-'\J	.
16e\JJ	.	.
=92	=92	=92
&(16F\LL&)	8a-/	.
16c\	.	.
16A-\	8r	.
16c\JJ	.	.
16F\LL	(16f/LL	.
16c\	16g/	.
16A-\	16a-/	.
16c\JJ	16b-/JJ	.
16F\LL	16cc\LL	.
16c\	16ddn\	.
16A-\	16een\	.
16c\JJ	16ff\JJ	.
=93	=93	=93
16G\LL	4ff\	>
16c\	.	.
16B-\	.	.
16c\JJ	.	.
16G'\LL	8een\L)	.
16c\	.	.
16F'\	8dd-'\	.
16c\JJ	.	.
16En'\LL	8cc'\	.
16c\	.	.
16G'\	8b-'\J	.
16c\JJ	.	.
=94	=94	=94
&(16F\LL&)	8a-/	.
16c\	.	.
16A-\	8r	.
16c\JJ	.	.
16F\LL	(16f/LL	.
16c\	16g/	.
16A-\	16a-/	.
16c\JJ	16b-/JJ	.
16F\LL	16cc\LL	.
16c\	16ddn\	.
16A-\	16een\	.
16c\JJ	16ff\JJ	.
=95	=95	=95
16E-\LL	4.gg-\	.
16c\	.	.
16A-\	.	.
16c\JJ	.	.
16E-\LL	.	.
16c\	.	.
16A-\	16ee-\LL	.
16c\JJ	16cc\JJ	.
16E-\LL	8a-'/L)	.
16c\	.	.
16A-\	8g-'/J	.
16c\JJ	.	.
=96	=96	=96
(16D-\LL	4f'/	.
16A-\	.	.
16F\	.	.
16A-\JJ	.	.
16D-\LL	8r	.
16A-\	.	.
16F\	8ff'\L	.
16A-\JJ	.	.
16D-\LL	8ff'\	.
16A-\	.	.
16F\	8ff'\J	.
16A-\JJ	.	.
=97	=97	=97
.	.ee-q/LL	.
.	.ffq/JJ	.
16C\LL	&(4.gg-\&)	.
16A-\	.	.
16E-\	.	.
16A-\JJ	.	.
16C\LL	.	.
16A-\	.	.
16E-\	16ee-\LL	.
16A-\JJ	16cc\JJ	.
16C\LL	&(8a-'/L&)	.
16A-\	.	.
16E-\	8g-'/J	.
16A-\JJ	.	.
=98	=98	=98
(16D-\LL)	4f'/	.
16A-\	.	.
16F\	.	.
16A-\JJ	.	.
16D-\LL	8r	.
16A-\	.	.
16F\	16dd-\LL	.
16A-\JJ	16ff\JJ	.
16D-\LL	&(8aa-'\L&)	.
16A-\	.	.
16F\	8aa-'\J	.
16A-\JJ)	.	.
=99	=99	=99
16C\LL	(16gg-\LL	.
16A-\	16aa-\	.
16E-\	16gg-\	.
16A-\JJ	16ff\JJ	.
16C\LL	16ee-\LL	.
16A-\	16ff\	.
16E-\	16ee-\	.
16A-\JJ	16dd-\JJ	.
16C\LL	16cc/LL	.
16A-\	16b-/	.
16E-\	16a-/	.
16A-\JJ	16g-/JJ	.
=100	=100	=100
16D-\LL	4f/)	.
16A-\	.	.
16F\	.	.
16A-\JJ	.	.
16D-\LL	8r	.
16A-\	.	.
16F\	8ff\L	.
16A-\JJ	.	.
16D-\LL	8ff\	.
16A-\	.	.
16F\	8ff\J	.
16A-\JJ	.	.
=101	=101	=101
.	.(ffq/LLL	.
.	.ggnq/JJJ	.
16C\LL	4.aa-\)	.
16A-\	.	.
16F\	.	.
16A-\JJ	.	.
16C\LL	.	.
16A-\	.	.
16F\	8ff\L	.
16A-\JJ	.	.
16C\LL	8ff\	.
16A-\	.	.
16F\	8ff\J	.
16A-\JJ	.	.
=102	=102	=102
.	.(ffq/LLL	.
.	.ggnq/JJJ	.
16BBn\LL	4.aa-\)	.
16A-\	.	.
16F\	.	.
16A-\JJ	.	.
16BB\LL	.	.
16A-\	.	.
16F\	8ff\L	.
16A-\JJ	.	.
16BB\LL	8ff\	.
16A-\	.	.
16F\	8ff\J	.
16A-\JJ	.	.
=103	=103	=103
4C/	(16een\LL	ff
.	16cc\	.
.	16ee\	.
.	16gg\JJ	.
4r	16ccc\LL	.
.	16cc\	.
.	16ee\	.
.	16gg\JJ	.
*clefG2	*	*
4c'/ 4en'/	16ccc\LL	.
.	16bb-\	.
.	16aa-\	.
.	16gg\JJ	.
=104	=104	=104
&(4c'/&) 4f'/	16aa-\LL	.
.	16cc\	.
.	16ff\	.
.	16aa-\JJ	.
4r	16ccc\LL	.
.	16cc\	.
.	16ff\	.
.	16aa-\JJ	.
4c'/ 4a-'/	16ccc\LL	.
.	16aa-\	.
.	16gg\	.
.	16ff\JJ	.
=105	=105	=105
&(4c'/&) 4g'/	16een\LL	.
.	16cc\	.
.	16ee\	.
.	16gg\JJ	.
8r	16ccc\LL	.
.	16cc\	.
8c'/ 8en'/L	16ee\	.
.	16gg\JJ	.
8c'/ 8e'/	16ccc\LL	.
.	16bb-\	.
&(8c'/&) 8e'/J	16aa-\	.
.	16gg\JJ	.
=106	=106	=106
4c/ 4f/	16aa-\LL	.
.	16cc\	.
.	16ff\	.
.	16aa-\JJ	.
8r	16ccc\LL	.
.	16cc\	.
8c'/ 8a-'/L	16ff\	.
.	16aa-\JJ	.
8c'/ 8a-'/	16ccc\LL	.
.	16aa-\	.
&(8c'/&) 8a-'/J	16gg\	.
.	16ff\JJ	.
=107	=107	=107
.	.ee-q/LLL	.
.	.ggq/JJJ	.
4c/ 4g/	&(4ccc\&))	.
4r	4r	.
4r	4r	.
=108	=108	=108
2.r	4r	.
.	8r	.
.	8b-'\ (8dd-'\L	p
.	8b-'\ 8dd-'\	.
.	8b-'\ 8dd-'\J)	.
=109	=109	=109
4r	8b-\ 8dd-\	.
.	8r	.
8r	4r	p
*clefF4	*	*
(8EEn'/L	.	.
8EE'/	4r	.
8EE'/J)	.	.
=110	=110	=110
8EEn/	4r	.
8r	.	.
8r	8r	.
*clefG2	*	*
(8en'/ 8g'/L	8b-\ (8cc\L	.
8e'/ 8g'/	8b-'\ 8cc'\	.
8e'/) 8g'/J	8b-'\ 8cc'\J)	.
=111	=111	=111
8en/ 8g/	8b-\ 8cc\	.
8r	8r	.
8r	4r	.
*clefF4	*	*
(8FF'/L	.	.
8FF'/	4r	.
8FF'/J)	.	.
=112	=112	=112
8FF/	4r	.
8r	.	.
8r	8r	.
*clefG2	*	*
(8e-'/L	8an'\ (8gg-'\L	.
8e-'/	8a'\ 8gg-'\	.
8e-'/J)	8a'\ 8gg-'\J)	.
=113	=113	=113
8e-/	8an\ 8gg-\	.
8r	8r	.
8r	4r	.
*clefF4	*	*
(8CC'/L	.	.
8CC'/	4r	.
8CC'/J)	.	.
=114	=114	=114
8CC/	4r	.
8r	.	.
8r	8r	.
(8d-'\L	8b-'\ (8ff'\L	.
8d-'\	8b-'\ 8ff'\	.
8d-'\J)	8b-'\ 8ff'\J)	.
=115	=115	=115
8d-\	8b-\ 8ff\	.
8r	8r	.
8r	4r	.
(8BBB-'/L	.	.
8BBB-'/	4r	.
8BBB-'/J)	.	.
=116	=116	=116
8BBB-/	4r	.
8r	.	.
8r	8r	.
*clefG2	*	*
(8g-'/L	8b-'\ (8dd-'\L	<
8g-'/	8b-'\ 8dd-'\	.
8g-'/J)	8b-'\ 8dd-'\J)	.
=117	=117	=117
*	*^	*
(4g-/	2dd-/	2b-\	.
4f/)	.	.	.
(4f-/	[4cc-/ 4ddn/	[4a-\	.
=118	=118	=118	=118
2e-/)	2ee-/	4a-\] 4cc-\]	.
.	.	4gn\ 4b-\	.
4cn/ 4fn/	[4ee-/	4an\	f
=119	=119	=119	=119
*^	*	*	*
4g-/	2B-\	4ee-/]	2b-\	.
4f/	.	4dd-/	.	.
(4gn/	4r	[4dd-/ 4een/	[4b-\	.
*v	*v	*	*	*
=120	=120	=120	=120
2f/)	2ff/	4b-\] 4dd-\]	.
.	.	4a-\ 4cc\	.
4dn/ (4g/	[4ff/	4bn\	.
=121	=121	=121	=121
*^	*	*	*
4a-/	2c\	4ff/]	&(2cc\&)	.
4g/)	.	4ee-/	.	.
(4an/	4r	[4ee-/ 4ff#/	[4cc\	.
*v	*v	*	*	*
=122	=122	=122	=122
4.g/)	4.gg/	4cc\] 4ee-\]	.
.	.	8bn\ 8dd\L	.
(8f'/L	8aa-'/L	8b\ 8dd\	f
8f'/	8aa-/	8b\ 8dd\	.
8f'/J)	8aa-/J	8b\ &(8dd\J&)	.
=123	=123	=123	=123
4f/	4aa-/	4bn\ 4dd\	p
8r	2r	4r	.
*clefF4	*	*	*
(8BBBn'/L	.	.	.
8BBB'/	.	4r	.
8BBB'/J)	.	.	.
*	*v	*v	*
=124	=124	=124
4BBBn/	4r	.
4r	8r	.
.	8ff'\ (8aa-'\L	.
4r	8ff'\ 8aa-'\	.
.	8ff'\ 8aa-'\J)	.
=125	=125	=125
4r	4ff\ 4aa-\	f
8r	4r	.
(8BBB-'/L	.	.
8BBB-'/	4r	.
8BBB-'/J)	.	.
*	*clefF4	*clefF4
=126	=126	=126
4BBB-/	(16D\LL	.
.	16F\	.
.	16E-\	.
.	16G\JJ	.
8r	8F\)	.
8A-'\ (8B-'\L	8r	.
8A-'\ 8B-'\	4r	.
8A-'\ 8B-'\J)	.	.
*	*clefG2	*clefG2
=127	=127	=127
4A-\ 4B-\	(16d/LL	.
.	16f/	.
.	16e-/	.
.	16g/JJ	.
8r	8f/)	.
*clefG2	*	*
(8a-'/ 8b-'/L	8r	.
8a-'/ 8b-'/	4r	.
8a-'/) 8b-'/J	.	.
=128	=128	=128
8a-/ 8b-/	(16dd\LL	.
.	16ff\	.
8r	16ee-\	.
.	16gg\JJ	.
4r	8ff\)	.
.	8r	.
8a-'/ 8b-'/L	(16dd\LL	.
.	16ff\	.
8a-'/ 8b-'/J	16ee-\	.
.	16gg\JJ	.
=129	=129	=129
&(8a-'/&) 8b-'/	8ff\)	.
8r	8r	.
(8a-'/ 8b-'/L	(16dd\LL	.
.	16ff\	.
8a-'/ 8b-'/J	16ee-\	.
.	16gg\JJ	.
8a-'/) 8b-'/	8ff\)	.
8r	8r	.
=130	=130	=130
2.r	16a-\LL	<
.	16b-\	.
.	16cc\	.
.	16dd\JJ	.
.	16ee-\LL	.
.	16ff\	.
.	16gg\	.
.	16aa-\JJ	.
.	16bb-\LL	.
.	16ccc\	.
.	16ddd\	.
.	16eee-\JJ	.
=131	=131	=131
!!*M10/4	*M10/4	*M10/4
4B-;/ 4d;/ 4f;/ 4a-;/	4fff;\	.
4r	(32eee-\LLL	.
.	32ddd\	p
.	32ccc\	.
.	32bb-\	.
.	32aa-\	.
.	32gg\	.
.	32ff\	.
.	32aa-\JJJ	.
4r	32gg\LLL	.
.	32bb-\	.
.	32aa-\	.
.	32ccc\	.
.	32bb-\	.
.	32aa-\	.
.	32gg\	.
.	32ff\JJJ	.
4r	32een\LLL	.
.	32gg\	.
.	32ff\	.
.	32aa-\	.
.	32gg\	.
.	32bb-\	.
.	32aa-\	.
.	32gg\JJJ	.
4r	32ff\LLL	.
.	32ee-\	.
.	32dd\	.
.	32gg\	.
.	32ff\	.
.	32ee-\	.
.	32dd\	.
.	32cc\JJJ	.
4r	32bn\LLL	.
.	32b-\	.
.	32an\	.
.	32a-\	.
.	32g\	.
.	32g-\	.
.	32f\	.
.	32en\JJJ	.
4r	20e-\LL	.
.	20d\)	.
.	20d-\	.
.	20c\	.
.	20c-\JJ	.
4r	(8B-'/L	.
.	8An'/J)	.
4r;	(4A-;/	.
4r	(16G/LL)	mf
.	16B-/	.
.	16A-/	.
.	16cn/JJ	.
*clefF4	*	*
=132	=132	=132
*M3/4	*M3/4	*M3/4
8EE-/ 8GG/	8B-/)	mf
8r	8r	.
8E-\ 8G\	4r	.
8r	.	.
4r	(16g/LL	.
.	16e-/	.
.	16d/	.
.	16f/JJ	.
=133	=133	=133
8EE-/ 8GG/	8e-/)	.
8r	8r	.
8E-\ 8G\	8r	.
8r	(8e-/L	<
4r	8g/	.
.	8b-/J	.
=134	=134	=134
4.c\ (4.e-\	4b-\	.
.	8a-'/L)	.
8B-'\ 8d'\L)	8g'/	.
8A-'\ 8c'\	8f'/	.
8G'\ 8B-'\J	8e-'/J	.
=135	=135	=135
4F\ 4A-\	(8.d/L	.
.	16f/Jk	.
4r	8a-'/)	.
.	8r	.
4r	(16B-/LL	.
.	16d/	.
.	16c/	.
.	16e-/JJ	.
=136	=136	=136
8BBB-/ 8DD/	8d/)	.
8r	8r	.
8BB-/ 8D/	4r	.
8r	.	.
4r	(16d/LL	.
.	16f/	.
.	16e-/	.
.	16g/JJ	.
=137	=137	=137
8BBB-/ 8DD/	8f/)	.
8r	8r	.
8BB-/ 8D/	8r	.
8r	(8f/L	<
4r	8a-/	.
.	8cc/J	.
=138	=138	=138
4.d\ 4.f\	4cc\	.
.	8b-/L)	.
8c'\ 8e-'\L	8a-'/	.
8B-'\ 8d'\	8g'/	.
8A-'\ 8c'\J	8f'/J	.
=139	=139	=139
.	.(e-q/LLL	.
.	.fq/	.
.	.e-q/	.
.	.dq/JJJ	.
4G\ 4B-\	(8.e-/L)	.
.	16g/Jk	.
4r	8b-'/)	.
.	8r	.
4r	(16ee-\LL	f
.	16dd\	.
.	16ff\	.
.	16ee-\JJ	.
=140	=140	=140
2.GG/ 2.BB-/ [2.E-/	16gg\LL	f
.	16ff\	.
.	16aa-\	.
.	16gg\JJ	.
.	16bb-\LL	.
.	16aa-\	.
.	16gg\	.
.	16ff\JJ	.
.	16ee-\LL	.
.	16dd\	.
.	16cc\	.
.	16bn\JJ	.
=141	=141	=141
4.AA-/ 4.E-/]	4bn\	.
.	8cc\)	.
.	.(ddq/LLL	.
.	.ccq/	.
.	.bq/JJJ	.
8r	(8cc\L)	p
4r	8dd\	.
.	8ee-\J)	.
=142	=142	=142
4r	8ee-/L	.
.	8f'/J	.
4r	(8cc/L	.
.	8c'/J)	.
4BB-\ 4F\	(8a-/L	p
.	8d'/J)	.
=143	=143	=143
8r	8e-/	.
8E-/L	8r	.
8BB-'/	4r	.
8GG'/J	.	.
&(8EE-'/&)	8r	.
8r	(8B-/	.
=144	=144	=144
8r	[2e-/	mf
(8E-\L	.	.
8G\	.	.
8E-\	.	.
8B-\	8e-/L]	.
8BB-\J)	8d/J)	.
=145	=145	=145
8r	[2a-/	.
(8BB-/L	.	.
8D/	.	.
8BB-/	.	.
8E-/	8a-/L]	.
8EE-/J)	8g/J	.
=146	=146	=146
*	*^	*
8r	[2ee-/	(2g\	.
8E-\L	.	.	.
8G\	.	.	.
8E-\	.	.	.
8B-\	8ee-/L]	4f\)	.
8BB-\J	8dd/J	.	.
=147	=147	=147	=147
8r	[2aa-/	[2ff\	<
(8B-\L	.	.	.
8d\	.	.	.
8B-\	.	.	.
8e-\	8aa-/L]	8ff\L]	.
8E-\J)	8gg/J	8gg\J	.
*	*v	*v	*
=148	=148	=148
8r	[2ccc\	.
(8e-\L	.	.
8g\	.	.
8e-\	.	.
8d\	8ccc\L]	.
8f\J)	8bbn\J	.
=149	=149	=149
8r	[2ff\ [2ddd\	f
(8G\L	.	.
8Bn\	.	.
8G\	.	.
8c\)	8ff\] 8ddd\L]	.
8C\J	8ee-\ 8ccc\J	.
*clefG2	*	*
=150	=150	=150
8r	[2dd-\ [2bb-\	.
(8e-/L	.	.
8g/	.	.
8e-/	.	.
8a-/	8dd-\] 8bb-\L]	.
8A-/J)	8cc\ 8aa-\J	.
*clefF4	*	*
=151	=151	=151
8r	[2b-\ [2gg\	.
8C/L	.	.
8En/	.	.
8C/	.	.
8F/	8b-\] 8gg\L]	.
&(8FF/J&)	8a-\ (8ff\J	.
*clefG2	*	*
=152	=152	=152
8r	[2cc\ [2aa-\	>
8d/L	.	.
8f/	.	.
8d/	.	.
8e-/	8cc\] 8aa-\L]	.
&(8g/J&)	8b-\ 8gg\J	.
*clefF4	*	*
=153	=153	=153
8r	[2a-\ [2ff\	.
(8c-\L	.	.
8dn\	.	.
8c-\	.	.
8B-\	8a-\] 8ff\L]	.
8e-\J)	8g\ 8ee-\J)	.
=154	=154	=154
[2.A-\ [2.cn\ [2.f\	8r	.
.	8cc\L	mf
.	8ff\	.
.	8een\	.
.	8gg\	.
.	8ff\J	.
=155	=155	=155
2.A-\] 2.c\] 2.f\]	8bbn\L	.
.	8ddd\	.
.	8ccc\	.
.	8gg\	.
.	8aa-\	.
.	8ff\J	>
*clefG2	*	*
=156	=156	=156
2.B-/ 2.f/ 2.a-/	8ee-\L	.
.	8dd\	.
.	8aa-\	.
.	8ff\	.
.	8dd\	.
.	8cc-\J	.
=157	=157	=157
2.r	8b-\L	p
.	8an\	.
.	8ff\	.
.	8a\	.
.	8ff\	.
.	8a-\J	.
*clefF4	*	*
=158	=158	=158
16E-\LL	8g/	f
16B-\	.	.
16G\	8r	.
16B-\JJ	.	.
16E-\LL	(16e-/LL	<
16B-\	16f/	.
16G\	16g/	.
16B-\JJ	16a-/JJ	.
16E-\LL	16b-\LL	.
16B-\	16cc\	.
16G\	16dd\	.
16B-\JJ	16ee-\JJ	.
=159	=159	=159
16F\LL	4ee-\	.
16B-\	.	.
16A-\	.	.
16B-\JJ	.	.
16F'\LL	8dd\L)	.
16B-\	.	.
16E-'\	8cc'\	.
16B-\JJ	.	.
16D'\LL	8b-'\	.
16B-\	.	.
16F'\	8a-'\J	.
16B-\JJ	.	.
=160	=160	=160
16E-\LL	(8f#/L	.
16B-\	.	.
16G\	8g/J)	.
16B-\JJ	.	.
16E-\LL	(16e-/LL	.
16B-\	16fn/	.
16G\	16g/	.
16B-\JJ	16a-/JJ	.
16E-\LL	16b-\LL	.
16B-\	16cc\	.
16G\	16dd\	.
16B-\JJ	16ee-\JJ	.
=161	=161	=161
16F\LL	4ee-\	f
16B-\	.	.
16A-\	.	.
16B-\JJ	.	.
16F'\LL	8dd\L)	.
16B-\	.	.
16E-'\	8cc'\	.
16B-\JJ	.	.
16D'\LL	8b-'\	.
16B-\	.	.
16F'\	8a-'\J	.
16B-\JJ	.	.
=162	=162	=162
16E-\LL	(8f#/L	.
16B-\	.	.
16G\	8g/J)	.
16B-\JJ	.	.
16E-\LL	(16e-/LL	.
16B-\	16fn/	.
16G\	16g/	.
16B-\JJ	16a-/JJ	.
16E-\LL	16b-\LL	.
16B-\	16cc\	.
16G\	16dd-\	.
16B-\JJ	16ee-\JJ	.
=163	=163	=163
16D-\LL	4.ff\)	.
16B-\	.	.
16G\	.	.
16B-\JJ	.	.
16D-\LL	.	.
16B-\	.	.
16G\	(8ff\	.
16B-\JJ	.	.
16D-\LL	8.bb-\L	.
16B-\	.	.
16G\	.	.
16B-\JJ	16gg\Jk	.
=164	=164	=164
16C\LL	4ff\	.
16B-\	.	.
16G\	.	.
16B-\JJ	.	.
16C\LL	4..een\	.
16B-\	.	.
16G\	.	.
16B-\JJ	.	.
16C\LL	.	.
16B-\	.	.
16G\	.	.
16B-\JJ	32ddn\LLL	.
.	32ee\JJJ	.
=165	=165	=165
16C\LL	8.ff\L	.
16A-\	.	.
16F\	.	.
16A-\JJ	16gg\Jk	.
16C\LL	8aa-\L)	.
16A-\	.	.
16F\	16r	.
16A-\JJ	(16gg\Jk	.
16C-\LL	8ff\L)	.
16A-\	.	.
16F\	16r	.
16A-\JJ	(16ee-\Jk	.
=166	=166	=166
16BB-\LL	4ee-\	.
16A-\	.	.
16F\	.	.
16A-\JJ	.	.
16BB-\LL	8.dd\L	.
16A-\	.	.
16F\	.	.
16A-\JJ	32cc\LL	.
.	32dd\JJJ	.
16Cn\LL	4ee-\)	.
16G\	.	.
16E-\	.	.
16G\JJ	.	.
=167	=167	=167
4AA-/	(16dd\LL	p
.	16cc\	.
.	16bn\	.
.	16cc\JJ	.
4r	16b\LL	.
.	16cc\	.
.	16b\	.
.	16cc\JJ	.
4r	8ee-\L	.
.	8cc'\J)	.
=168	=168	=168
4c\ 4e-\	16b-/LL	.
.	(16a-/	.
.	16g/	.
.	16a-/JJ	.
4r	16g/LL	.
.	16a-/	.
.	16g/	.
.	16a-/JJ	.
4r	8cc/L	.
.	8a-'/J)	.
=169	=169	=169
2.r	(16g/LL	.
.	16f/JJ	.
.	16en\LL	.
.	16f\JJ	.
.	16dd-/LL	<
.	16cc/JJ	.
.	16bn\LL	.
.	16cc\JJ	.
.	16gg/LL	.
.	16ff/JJ	.
.	16een\LL	.
.	16ff\JJ)	.
=170	=170	=170
2.r	4bbn\	f
.	.cccq/LL	.
.	.bbnq/	.
.	.aanq/JJ	.
.	8.bb\L	.
.	16ddd\Jk	>
.	12ccc\L	.
.	12aa\	.
.	12ff\J	.
*clefG2	*	*
=171	=171	=171
*	*^	*
2B-/ 2g/	2r	4.ee-\	.
.	.	(8ee-\	p
4B-/ 4a-/	8gg/L	4dd\	.
.	8ff/J	.	.
*clefF4	*	*	*
*	*v	*v	*
=172	=172	=172
(16E-\LL	4ee-\)	f
16B-\	.	.
16G\	.	.
16B-\JJ	.	.
16E-\LL	8r	.
16B-\	.	.
16G\	8b-'\L	.
16B-\JJ	.	.
16E-\LL	8ee-'\	.
16B-\	.	.
16G\	8gg'\J	.
16B-\JJ	.	.
=173	=173	=173
.	.ddq/LLL	.
.	.&(ffq/JJJ&)	.
16D\LL	4.aa-\	.
16B-\	.	.
16F\	.	.
16B-\JJ	.	.
16D\LL	.	.
16B-\	.	.
16F\	16ff\LL	.
16B-\JJ	16dd\JJ	.
16D\LL	&(8b-'/L&)	.
16B-\	.	.
16F\	8a-'/J	.
16B-\JJ	.	.
=174	=174	=174
(16E-\LL)	4g/	.
16B-\	.	.
16G\	.	.
16B-\JJ	.	.
16E-\LL	16r	.
16B-\	16b-\LL	.
16G\	16ee-\	.
16B-\JJ	16gg\JJ	.
16E-\LL	&(8bb-'\L&)	.
16B-\	.	.
16G\	8bb-'\J	.
16B-\JJ	.	.
=175	=175	=175
4D\)	16aa-\LL	.
.	16bb-\	.
.	16aa-\	.
.	16gg\JJ	.
4r	16ff\LL	.
.	16ee-\	.
.	16dd\	.
.	16cc\JJ	.
4r	16b-/LL	.
.	16a-/	.
.	16g/	.
.	&(16f/JJ&)	.
=176	=176	=176
8E-\	8e-'\L	>
8r	8ee-\ 8gg\J	.
8B-\	8r	.
8r	8dd\ 8ff\	.
8c\	8r	.
8r	8cc\ 8ee-\	.
=177	=177	=177
8G\	8r	.
8r	8b-\ 8dd-\	.
8A-\	8r	.
8r	8a-\ 8cc\	.
8c\ 8en\	8r	.
8r	8g/ 8b-/	.
=178	=178	=178
8d-\	8r	.
8r	8f/ 8a-/	.
4r	4r	.
4r	4r	.
=179	=179	=179
2.r	4r	.
.	8r	.
.	(8f'/ 8a-'/L	p
.	8f'/ 8a-'/	.
.	8f'/) 8a-'/J	.
=180	=180	=180
4r	[2.f/ [2.a-/	.
8r	.	.
(8d-'\L	.	.
8d-\	.	.
8d-'\J)	.	.
=181	=181	=181
2d-\	4.f/] 4.a-/]	.
.	.gq/	.
.	8f/ 8a-/L	.
.	.gq/	.
4r	8f/ 8a-/	.
.	.gq/	.
.	8f/ 8a-/J	.
=182	=182	=182
4r	[2.f/ [2.a-/	.
8r	.	.
Cq/	.	.
8D\L	.	.
Cq/	.	.
8D\	.	.
Cq/	.	.
8D\J	.	.
=183	=183	=183
4D-/	2f/] 2a-/]	<
4C/	.	.
4C-/	4e-/ 4g-/ (4an/	f
=184	=184	=184
&(2.BB-\&) 2.E-\ 2.G\	4.e-/ 4.gn/ 4.b-/	.
.	16cc\LL	.
.	16b-\JJ	.
.	16a-/LL	.
.	16g/	.
.	16f/	.
.	16e-/JJ	.
=185	=185	=185
2.BB-\ 2.F\ 2.A-\	4.d/)	.
.	.(gq/LL	.
.	.fq/	.
.	.enq/JJ	.
.	8f/L	.
.	8a-/	.
.	8d/J	.
=186	=186	=186
*^	*	*
8r	[2.E-\	(8e-/L)	.
8G/L	.	8B-/	.
8A-/	.	8c-/	.
8An/	.	8cn/	.
8B-/	.	8d-/	.
8Bn/J	.	8dn/J	.
=187	=187	=187	=187
8c/L	2.E-\_	8e-/L	.
8B-/	.	8en/	.
8A-/	.	8f/	.
8G/	.	8g/	.
8F/	.	8a-/	.
8A-/J	.	8d/J	.
=188	=188	=188	=188
&(8G/&)	8E-\]	8e-/)	.
8r	8r	(8g/ 8b-/L	f
4r	4r	8a-/ 8cc/	.
.	.	8g/ 8b-/	.
4r	4r	8f/ 8a-/	.
.	.	8e-/ 8g/J	.
*v	*v	*	*
=189	=189	=189
8BB-\ 8B-\L	4d/) 4f/	f
8AAn\ 8An\	.	.
8AA-\ 8A-\	4r	.
8GG\ 8G\	.	.
8FF\ 8F\	4f/ 4a-/ (4dd/	.
8BB-\ 8B-\J	.	.
=190	=190	=190
4EE-/ &(4E-/&)	8g\ 8b-\ 8ee-\)	.
.	8gg\ (8bb-\L	p
4r	8aa-\ 8ccc\	.
.	8gg\ 8bb-\	.
4r	8ff\ 8aa-\	.
.	8ee-\ 8gg\J	.
*clefG2	*	*
=191	=191	=191
8r	2dd\ (2ff\)	p
8b-/L	.	.
&(8cc/&)	.	.
8b-/	.	.
8a-/	4een\ 4gg\	.
8g/J	.	.
=192	=192	=192
&(8f/L&)	4ff\ 4aa-\	<
8a-/	.	.
8b-/	4cc\ 4ee-\	.
8a-/	.	.
8g/	4dd\ 4ff\	.
8f/J	.	.
=193	=193	=193
&(8e-/L&)	8ee-\ 8gg\L)	.
8b-/	8dd\ (8ff\	.
8cc/	8ee-\ 8aa-\	.
8b-/	8dd\ 8gg\	.
8a-/	8cc\ 8ff\	>
8g/J	8b-\ 8ee-\J	.
=194	=194	=194
8f/L	8a-\ 8dd\L	.
8e-/	8g\ 8cc\J	.
8d/	4f/ 4b-/	.
8d-/	.	.
8c/	4e-/ 4an/	.
8c-/J	.	.
=195	=195	=195
&(2B-;/&) 2d;/	2d;/ 2a-;/)	.
8r	4r	.
*clefF4	*	*
(8BB-/	.	.
=196	=196	=196
[2E-\	8r	.
.	8e-/L	mf
.	8g/	.
.	8e-/	.
8E-\L]	8a-/	.
8D\J)	&(8B-/J&)	.
=197	=197	=197
([2A-\	8r	.
.	(8b-/L	.
.	8dd/	.
.	8b-/	.
8A-\L]	8ee-/	.
8G\J)	8e-/J)	.
=198	=198	=198
([2d-\	8r	.
.	(8ee-\L	.
.	8gg\	.
.	8ee-\	.
8d-\L]	8aa-\	.
8c\J)	8a-\J)	.
=199	=199	=199
8r	(8aan\L	<
8e-\ 8f\	8an\J)	.
8r	(8bb-\L	.
8dn\ 8f\	8b-\J)	.
8r	(8bbn\L	.
*clefG2	*	*
8f/ 8g/	8bn\J)	.
=200	=200	=200
8r	(8ccc\L	f
8e-/ 8g/	8cc\J)	.
8r	(8ddd\L	.
8a-/ 8b-/	8dd\J)	.
8r	8eee-\L	.
8g/ 8b-/	8ee-\J	.
=201	=201	=201
2.r	4r	.
.	4r	.
.	8r	.
.	(8c/	p
*clefF4	*	*
=202	=202	=202
8r	[2cc\	p
8AA-\L	.	.
8A-\	.	.
8F\	.	.
8B-\	8cc/L]	.
8BB-\J	8d/J	.
=203	=203	=203
&(4E-\&)	8e-/	.
.	(8g/ 8b-/L)	f
4r	8a-/ 8cc/	.
.	8g/ 8b-/	.
4r	8f/ 8a-/	.
.	8e-/ 8g/J	.
=204	=204	=204
8r	4d/) 4f/	.
(8B-\L	.	.
8An\	4r	.
8B-\	.	.
8A-\	4r	.
8F\J	.	.
*	*clefF4	*clefF4
=205	=205	=205
4E-\)	8r	.
.	8G\ 8B-\L	.
4r	8A-\ 8c\	.
.	8G\ 8B-\	.
4r	8F\ 8A-\	.
.	8E-\ 8G\J	.
=206	=206	=206
8r	4D\ &(4F\&)	.
(8BBB-/L	.	.
8CC-/	4r	.
8CCn/	.	.
8DD-/	4r	.
8DDn/J	.	.
=207	=207	=207
4EE-/)	8r	.
.	8E-\L	mf
4r	8F-\	.
.	8Fn\	.
4r	8G-\	.
.	8Gn\J	.
=208	=208	=208
8r	&(([2A-\&)	.
8C/L	.	.
8E-/	.	.
8C/	.	.
8BB-/	8A-\L]	<
&(8E-/J&)	(8G\J)	.
=209	=209	=209
8r	2c\	.
(8AA-/L	.	.
8E-/	.	.
8AA-/	.	.
8GG/	8c\L)	.
8E-/J)	&(8B-\J&)	.
*	*clefG2	*clefG2
=210	=210	=210
8r	2B-/ [2f/ ([2a-/	f
(8DD/L	.	.
8D/	.	.
8DD/	.	.
8EE-/	8f/] 8a-/L]	.
8E-/J)	8e-/ 8g/J)	.
=211	=211	=211
8AA-\ 8A-\	8r	.
8r	8c/ 8f/	p
8BB-\ 8G\	8r	.
8r	8B-/ 8e-/	.
8BB-\ 8F\	8r	.
8r	8A-/ 8d/	.
=212	=212	=212
8r	2B-/ [2f/ [2a-/	f
(8DD/L	.	.
8D/	.	.
8DD/	.	.
8EE-/	8f/] 8a-/L]	.
8E-/J)	8e-/ 8g/J	.
=213	=213	=213
8AA-\ 8A-\	8r	.
8r	8c/ 8f/	p
8BB-\ 8G\	8r	.
8r	8B-/ 8e-/	.
8BB-\ 8F\	8r	.
8r	8A-/ 8d/	.
=214	=214	=214
4E-\ 4G\	8r	.
.	(8g/ 8b-/L	mf
4r	8a-/ 8cc/	.
.	8g/ 8b-/	.
4r	8f/ 8a-/	.
.	8e-/) 8g/J	.
=215	=215	=215
2.A-\ 2.B-\ 2.d\ 2.f\	8r	.
.	(8bb-\L	.
.	8ccc-\	<
.	8cccn\	.
.	8ddd-\	.
.	8dddn\J	.
=216	=216	=216
&(4G\&) 4B-\ 4e-\	8eee-\)	.
.	(8g/ 8b-/L	.
4r	8a-/ 8cc/	.
.	8g/ 8b-/	.
4r	8f/ 8a-/	.
.	8e-/) 8g/J	.
=217	=217	=217
2.BB-\ 2.D\ 2.F\ 2.A-\	[4B-/	f
.	(16B-/LL]	.
.	16c/	.
.	16d/	.
.	16e-/JJ	.
.	32f/LLL	.
.	32g/	.
.	32a-/	.
.	32b-/	.
.	32cc/	.
.	32dd/	.
.	32ee-/	.
.	32ff/JJJ	.
=218	=218	=218
4EE-/ 4GG/ 4BB-/ 4E-/	4gg\)	.
4r	4r	.
==:|!	==:|!	==:|!
*-	*-	*-
!!!ENC: Craig Stuart Sapp
!!!END: 2008/07/11/
